build/img/sprite.svg

<svg xmlns="http://www.w3.org/2000/svg" xmlns:xlink="http://www.w3.org/1999/xlink"><symbol id="icon-close" viewBox="0 0 20 20"><g fill="none"><path d="M.293 18.291a1 1 0 101.414 1.414L10 11.413l8.292 8.292a1 1 0 101.414-1.414l-8.292-8.292 8.292-8.292A1 1 0 1018.291.293L9.999 8.585 1.707.293A1 1 0 10.293 1.707L8.585 10 .293 18.291z"/></g></symbol><symbol id="ok" viewBox="0 0 10 17"><g fill="none">
<path d="M4.68035 2.88882C5.57885 2.88882 6.30955 3.64312 6.30955 4.57064C6.30955 5.49536 5.57885 6.24966 4.68035 6.24966C3.78186 6.24966 3.05116 5.49536 3.05116 4.57064C3.05116 3.64312 3.78186 2.88882 4.68035 2.88882ZM4.68035 8.6299C6.85081 8.6299 8.61532 6.8084 8.61532 4.57064C8.61532 2.33008 6.85081 0.508575 4.68035 0.508575C2.5099 0.508575 0.74809 2.33008 0.74809 4.57064C0.74809 6.8084 2.5099 8.6299 4.68035 8.6299ZM6.27166 11.9432C7.07273 11.7533 7.84403 11.4264 8.55579 10.9654C9.09434 10.6162 9.25672 9.88149 8.91843 9.32554C8.57744 8.76679 7.86838 8.59917 7.32712 8.95118C5.71687 9.99603 3.64384 9.99603 2.03088 8.95118C1.49232 8.59917 0.780566 8.76679 0.442278 9.32554C0.103989 9.88149 0.266367 10.6162 0.804922 10.9654C1.51668 11.4264 2.28798 11.7533 3.08905 11.9432L0.888818 14.2117C0.43957 14.6755 0.43957 15.4298 0.888818 15.8936C1.11615 16.1254 1.40843 16.2428 1.70342 16.2428C1.9984 16.2428 2.29339 16.1254 2.52072 15.8936L4.68035 13.6642L6.84269 15.8936C7.29194 16.3601 8.01994 16.3601 8.47189 15.8936C8.92114 15.4298 8.92114 14.6755 8.47189 14.2117L6.27166 11.9432Z" fill="#030A1A"/>
</g></symbol><symbol id="reddit" viewBox="0 0 15 15"><g fill="none">
<path d="M8.85089 0.555664C8.40551 0.555664 7.98758 0.781596 7.71951 1.10741C7.45144 1.43323 7.30368 1.8304 7.19603 2.24897C7.02506 2.92201 6.97229 3.66877 6.95963 4.34181C5.70793 4.42505 4.57444 4.79606 3.63303 5.36921C3.25098 5.04815 2.79083 4.86978 2.34968 4.87454C1.84731 4.87929 1.37028 5.09571 1.01566 5.54044C0.338103 6.38947 0.416202 7.77836 1.20141 8.60361C1.15286 8.85808 1.11698 9.11969 1.11698 9.38367C1.11698 12.1805 3.97498 14.4446 7.49999 14.4446C11.025 14.4446 13.883 12.1781 13.883 9.38367C13.883 9.11969 13.8471 8.85808 13.7986 8.60361C14.5838 7.77836 14.6619 6.38947 13.9843 5.54044C13.6297 5.09571 13.1527 4.87929 12.6503 4.87454C12.2091 4.86978 11.749 5.04815 11.3669 5.36921C10.4298 4.79843 9.3026 4.42743 8.05723 4.34181C8.07412 3.72109 8.11845 3.07659 8.24298 2.59143C8.32108 2.28702 8.41396 2.06584 8.51316 1.94455C8.61237 1.82326 8.68414 1.77332 8.85089 1.77332C9.21183 1.77332 9.25827 1.88985 9.47568 2.17286C9.58544 2.31556 9.71209 2.49393 9.91472 2.66754C10.1174 2.84115 10.4171 2.99098 10.7421 2.99098V1.77332C10.6514 1.77332 10.6345 1.77094 10.5733 1.71624C10.5121 1.66154 10.4276 1.5355 10.3031 1.37378C10.054 1.04796 9.57066 0.555664 8.85089 0.555664ZM12.3632 0.669819C11.5231 0.669819 10.8435 1.43561 10.8435 2.38215C10.8435 3.32869 11.5231 4.09448 12.3632 4.09448C13.2033 4.09448 13.883 3.32869 13.883 2.38215C13.883 1.43561 13.2033 0.669819 12.3632 0.669819ZM12.3632 1.27865C12.9036 1.27865 13.3426 1.77332 13.3426 2.38215C13.3426 2.99098 12.9036 3.48565 12.3632 3.48565C11.8229 3.48565 11.3838 2.99098 11.3838 2.38215C11.3838 1.77332 11.8229 1.27865 12.3632 1.27865ZM7.49999 5.29311C10.491 5.29311 13.0218 7.16953 13.0218 9.38367C13.0218 11.6002 10.491 13.4742 7.49999 13.4742C4.50901 13.4742 1.97818 11.6002 1.97818 9.38367C1.97818 7.16953 4.50901 5.29311 7.49999 5.29311ZM2.36656 5.84486C2.51643 5.84724 2.67263 5.88529 2.82249 5.95901C2.28002 6.42277 1.84942 6.95549 1.55602 7.55719C1.35339 7.0863 1.40827 6.49887 1.65734 6.18732C1.83887 5.95901 2.09005 5.84248 2.36656 5.84486ZM12.6334 5.84486C12.9099 5.84248 13.1611 5.95901 13.3426 6.18732C13.5917 6.49887 13.6466 7.0863 13.4439 7.55719C13.1506 6.95549 12.72 6.42277 12.1775 5.95901C12.3273 5.88529 12.4835 5.84724 12.6334 5.84486ZM5.33855 7.36693C4.79819 7.36693 4.35914 7.8616 4.35914 8.47043C4.35914 9.07926 4.79819 9.57393 5.33855 9.57393C5.87891 9.57393 6.31795 9.07926 6.31795 8.47043C6.31795 7.8616 5.87891 7.36693 5.33855 7.36693ZM9.66143 7.36693C9.12107 7.36693 8.68202 7.8616 8.68202 8.47043C8.68202 9.07926 9.12107 9.57393 9.66143 9.57393C10.2018 9.57393 10.6408 9.07926 10.6408 8.47043C10.6408 7.8616 10.2018 7.36693 9.66143 7.36693ZM4.81507 11.115C5.15913 11.9165 6.22296 12.6942 7.49999 12.6942C8.77701 12.6942 9.85773 11.9165 10.2018 11.115C9.577 11.5693 8.59126 11.8761 7.49999 11.8761C6.40871 11.8761 5.43986 11.5693 4.81507 11.115Z" fill="#030A1A"/>
</g></symbol><symbol id="vk" viewBox="0 0 13 8"><g fill="none">
<path d="M7.72271 6.05176C8.16539 5.90867 8.73216 6.99638 9.33552 7.41267C9.78838 7.728 10.1352 7.65993 10.1352 7.65993L11.7434 7.63678C11.7434 7.63678 12.5838 7.58492 12.1865 6.9172C12.1536 6.86163 11.9536 6.4222 10.9895 5.51786C9.98147 4.57185 10.1181 4.72512 11.3317 3.08962C12.0712 2.09267 12.3671 1.48376 12.2745 1.22445C12.1856 0.974862 11.6424 1.03969 11.6424 1.03969L9.83052 1.05219C9.6541 1.05265 9.50453 1.10729 9.43646 1.29066C9.43507 1.29252 9.14891 2.06211 8.76735 2.7164C7.96118 4.10046 7.63936 4.17408 7.506 4.08749C7.19992 3.88699 7.27725 3.28317 7.27725 2.85392C7.27725 1.51246 7.47729 0.953099 6.88551 0.808627C6.68779 0.760469 6.54332 0.728982 6.03905 0.724351C5.39449 0.714627 4.84716 0.724351 4.53692 0.876695C4.33086 0.979956 4.17296 1.20639 4.26881 1.21935C4.3892 1.23556 4.65916 1.29344 4.80363 1.4907C4.98932 1.74631 4.98376 2.3191 4.98376 2.3191C4.98376 2.3191 5.0898 3.89857 4.73371 4.09444C4.48922 4.22872 4.1549 3.9546 3.43578 2.69788C3.06858 2.05516 2.79121 1.34484 2.79121 1.34484C2.79121 1.34484 2.7375 1.21287 2.64026 1.14063C2.52449 1.05497 2.36243 1.02765 2.36243 1.02765L0.642654 1.03876C0.642654 1.03876 0.384271 1.04617 0.289345 1.16008C0.20507 1.26103 0.2824 1.4694 0.2824 1.4694C0.2824 1.4694 1.62942 4.65566 3.15471 6.26059C4.55312 7.73402 6.14231 7.63632 6.14231 7.63632H6.86236C6.86236 7.63632 7.07953 7.61131 7.19066 7.49185C7.29439 7.38071 7.28976 7.17188 7.28976 7.17188C7.28976 7.17188 7.2754 6.1953 7.72271 6.05176Z" fill="#030A1A"/>
</g></symbol></svg>

<svg xmlns="http://www.w3.org/2000/svg">

  <symbol id="vk" viewBox="0 0 13 8">
    <path d="M7.723 6.052c.442-.143 1.01.944 1.613 1.36.452.316.8.248.8.248l1.607-.023s.84-.052.444-.72c-.033-.055-.233-.495-1.197-1.4-1.009-.945-.872-.792.342-2.427.74-.997 1.035-1.606.942-1.866-.088-.25-.632-.184-.632-.184l-1.811.012c-.177 0-.326.055-.395.239 0 .002-.287.771-.669 1.425C7.961 4.1 7.64 4.174 7.506 4.087c-.306-.2-.229-.804-.229-1.233 0-1.342.2-1.9-.391-2.045-.198-.049-.343-.08-.847-.085-.645-.01-1.192 0-1.502.153-.206.103-.364.33-.268.342.12.017.39.074.535.272.185.255.18.828.18.828s.106 1.58-.25 1.775c-.245.135-.58-.14-1.298-1.396-.367-.643-.645-1.353-.645-1.353s-.054-.132-.15-.204c-.117-.086-.279-.113-.279-.113l-1.72.01s-.258.008-.353.122c-.084.101-.007.31-.007.31S1.63 4.655 3.155 6.26c1.398 1.474 2.987 1.376 2.987 1.376h.72s.218-.025.329-.144c.103-.111.099-.32.099-.32s-.015-.977.433-1.12Z"/>
  </symbol>

  <symbol id="ok" viewBox="0 0 10 17">
    <path d="M4.68 2.889c.899 0 1.63.754 1.63 1.682 0 .924-.731 1.679-1.63 1.679-.898 0-1.629-.755-1.629-1.68 0-.927.73-1.681 1.63-1.681Zm0 5.74c2.17 0 3.935-1.82 3.935-4.058C8.615 2.33 6.851.509 4.68.509 2.51.509.748 2.33.748 4.57.748 6.808 2.51 8.63 4.68 8.63Zm1.592 3.314a7.29 7.29 0 0 0 2.284-.978c.538-.349.7-1.084.362-1.64a1.13 1.13 0 0 0-1.59-.374 4.866 4.866 0 0 1-5.297 0 1.127 1.127 0 0 0-1.589.375 1.213 1.213 0 0 0 .363 1.64 7.29 7.29 0 0 0 2.284.977l-2.2 2.269a1.218 1.218 0 0 0 0 1.682c.227.231.52.349.814.349.295 0 .59-.118.818-.35l2.16-2.229 2.162 2.23c.449.466 1.177.466 1.629 0 .45-.464.45-1.219 0-1.682l-2.2-2.269Z"/>
  </symbol>

  <symbol id="reddit" viewBox="0 0 15 15">
    <path d="M8.85.556c-.444 0-.862.226-1.13.551-.269.326-.416.723-.524 1.142-.17.673-.224 1.42-.236 2.093a7.317 7.317 0 0 0-3.327 1.027c-.382-.32-.842-.5-1.283-.494-.503.004-.98.22-1.334.665-.678.85-.6 2.238.185 3.064a4.172 4.172 0 0 0-.084.78c0 2.796 2.858 5.06 6.383 5.06s6.383-2.266 6.383-5.06c0-.264-.036-.526-.084-.78.785-.826.863-2.215.185-3.064a1.697 1.697 0 0 0-1.334-.665c-.44-.005-.901.173-1.283.494a7.313 7.313 0 0 0-3.31-1.027c.017-.62.061-1.265.186-1.75.078-.305.171-.526.27-.647.1-.122.171-.172.338-.172.36 0 .407.117.625.4.11.143.236.32.439.495.202.173.502.323.827.323V1.773c-.09 0-.108-.002-.169-.057-.06-.054-.145-.18-.27-.342-.249-.326-.732-.818-1.452-.818Zm3.513.114c-.84 0-1.52.766-1.52 1.712 0 .947.68 1.712 1.52 1.712s1.52-.765 1.52-1.712c0-.946-.68-1.712-1.52-1.712Zm0 .609c.54 0 .98.494.98 1.103s-.44 1.104-.98 1.104-.98-.495-.98-1.104c0-.609.44-1.103.98-1.103ZM7.5 5.293c2.991 0 5.522 1.877 5.522 4.09 0 2.217-2.531 4.091-5.522 4.091S1.978 11.6 1.978 9.384c0-2.214 2.531-4.09 5.522-4.09Zm-5.133.552c.15.002.306.04.455.114a4.986 4.986 0 0 0-1.266 1.598c-.203-.47-.148-1.058.101-1.37a.877.877 0 0 1 .71-.342Zm10.266 0a.877.877 0 0 1 .71.342c.249.312.304.9.1 1.37a4.984 4.984 0 0 0-1.265-1.598c.15-.074.305-.112.455-.114ZM5.34 7.367c-.54 0-.98.495-.98 1.103 0 .61.44 1.104.98 1.104s.979-.495.979-1.104c0-.608-.44-1.103-.98-1.103Zm4.322 0c-.54 0-.979.495-.979 1.103 0 .61.44 1.104.98 1.104s.979-.495.979-1.104c0-.608-.44-1.103-.98-1.103Zm-4.846 3.748c.344.801 1.408 1.58 2.685 1.58 1.277 0 2.358-.779 2.702-1.58-.625.454-1.61.761-2.702.761-1.091 0-2.06-.307-2.685-.761Z"/>
  </symbol>
</svg
